assets/icons/navbar_home.svg

<svg width="25" height="25" viewBox="0 0 25 25" fill="none" xmlns="http://www.w3.org/2000/svg">
<path d="M7.58848 5.44236L6.58847 6.22291C5.07181 7.40674 4.31348 7.99866 3.90674 8.83326C3.5 9.66785 3.5 10.632 3.5 12.5602V14.6514C3.5 18.4361 3.5 20.3284 4.67157 21.5042C5.84315 22.6799 7.72876 22.6799 11.5 22.6799H13.5C17.2712 22.6799 19.1569 22.6799 20.3284 21.5042C21.5 20.3284 21.5 18.4361 21.5 14.6514V12.5602C21.5 10.632 21.5 9.66785 21.0933 8.83326C20.6865 7.99866 19.9282 7.40674 18.4115 6.22291L17.4115 5.44236C15.0521 3.60074 13.8724 2.67993 12.5 2.67993C11.1276 2.67993 9.94787 3.60074 7.58848 5.44236Z" stroke="white" stroke-width="1.5" stroke-linejoin="round"/>
</svg>

<svg xmlns="http://www.w3.org/2000/svg" width="25" height="25" fill="none" viewBox="0 0 25 25"><path stroke="#fff" stroke-linejoin="round" stroke-width="1.5" d="m7.588 5.442-1 .78C5.072 7.408 4.313 8 3.907 8.834S3.5 10.632 3.5 12.56v2.091c0 3.785 0 5.677 1.172 6.853S7.729 22.68 11.5 22.68h2c3.771 0 5.657 0 6.828-1.176s1.172-3.068 1.172-6.853v-2.09c0-1.929 0-2.893-.407-3.728-.407-.834-1.165-1.426-2.681-2.61l-1-.78C15.052 3.6 13.872 2.68 12.5 2.68s-2.552.92-4.912 2.762Z"/></svg>
